img/attachment-icon.svg

<svg width="35" height="36" viewBox="0 0 35 36" fill="none" xmlns="http://www.w3.org/2000/svg">
<g clip-path="url(#clip0_140_84)">
<path fill-rule="evenodd" clip-rule="evenodd" d="M27.2854 26.1157C28.4476 24.9534 29.1004 23.3771 29.1004 21.7334C29.1004 20.0898 28.4476 18.5135 27.2854 17.3511L17.7479 7.81364C17.4743 7.54019 17.3205 7.16924 17.3203 6.78239C17.3202 6.39553 17.4737 6.02447 17.7472 5.75083C18.0206 5.47719 18.3916 5.32338 18.7784 5.32324C19.1653 5.32311 19.5364 5.47665 19.81 5.7501L29.3475 15.2876C31.057 16.9968 32.0176 19.315 32.0179 21.7324C32.0181 24.1498 31.0581 26.4683 29.349 28.1778C27.6398 29.8874 25.3215 30.8479 22.9042 30.8482C20.4868 30.8485 18.1683 29.8884 16.4587 28.1793L4.85916 16.5782C3.62825 15.3471 2.93681 13.6775 2.93695 11.9366C2.93709 10.1957 3.62879 8.52611 4.85989 7.2952C6.09099 6.0643 7.76065 5.37286 9.50155 5.37299C11.2425 5.37313 12.912 6.06483 14.1429 7.29593L25.741 18.8941C26.4754 19.6504 26.8827 20.6654 26.8749 21.7196C26.867 22.7738 26.4447 23.7826 25.6991 24.528C24.9536 25.2733 23.9447 25.6954 22.8905 25.703C21.8362 25.7106 20.8214 25.303 20.0652 24.5684L9.49812 13.9999C9.22448 13.7264 9.07067 13.3555 9.07053 12.9686C9.0704 12.5818 9.22394 12.2107 9.49739 11.9371C9.77084 11.6634 10.1418 11.5096 10.5286 11.5095C10.9155 11.5094 11.2866 11.6629 11.5602 11.9364L22.1287 22.5049C22.3341 22.7105 22.6128 22.826 22.9033 22.8262C23.1939 22.8263 23.4727 22.711 23.6782 22.5056C23.8838 22.3002 23.9994 22.0216 23.9995 21.731C23.9996 21.4404 23.8843 21.1617 23.679 20.9561L12.0808 9.35802C11.7422 9.01923 11.3402 8.75046 10.8978 8.56704C10.4553 8.38362 9.98105 8.28914 9.50207 8.28901C9.02309 8.28887 8.54878 8.38308 8.10621 8.56625C7.66364 8.74942 7.26149 9.01797 6.9227 9.35656C6.2385 10.0404 5.85397 10.968 5.85369 11.9353C5.85342 12.9027 6.23743 13.8305 6.92125 14.5147L18.5208 26.1143C19.6831 27.2764 21.2595 27.9293 22.9031 27.9293C24.5468 27.9293 26.1231 27.2764 27.2854 26.1143V26.1157Z" fill="#FFC046"/>
</g>
<defs>
<clipPath id="clip0_140_84">
<rect width="35" height="35" fill="white" transform="translate(0 0.5)"/>
</clipPath>
</defs>
</svg>

<?xml version="1.0" encoding="utf-8"?>
<!-- Generator: Adobe Illustrator 27.0.0, SVG Export Plug-In . SVG Version: 6.00 Build 0)  -->
<svg version="1.1" id="Layer_1" xmlns="http://www.w3.org/2000/svg" xmlns:xlink="http://www.w3.org/1999/xlink" x="0px" y="0px"
	 viewBox="0 0 35 36" style="enable-background:new 0 0 35 36;" xml:space="preserve">
<style type="text/css">
	.st0{clip-path:url(#SVGID_00000173121350112489070350000002614272334499466679_);}
	.st1{fill-rule:evenodd;clip-rule:evenodd;fill:#FFFFFF;}
</style>
<g>
	<defs>
		<rect id="SVGID_1_" y="0.5" width="35" height="35"/>
	</defs>
	<clipPath id="SVGID_00000104703336368276845060000009321398659962943656_">
		<use xlink:href="#SVGID_1_"  style="overflow:visible;"/>
	</clipPath>
	<g style="clip-path:url(#SVGID_00000104703336368276845060000009321398659962943656_);">
		<path class="st1" d="M27.3,26.1c1.2-1.2,1.8-2.7,1.8-4.4c0-1.6-0.7-3.2-1.8-4.4l-9.5-9.5c-0.3-0.3-0.4-0.6-0.4-1
			c0-0.4,0.2-0.8,0.4-1c0.3-0.3,0.6-0.4,1-0.4c0.4,0,0.8,0.2,1,0.4l9.5,9.5c1.7,1.7,2.7,4,2.7,6.4c0,2.4-1,4.7-2.7,6.4
			c-1.7,1.7-4,2.7-6.4,2.7c-2.4,0-4.7-1-6.4-2.7L4.9,16.6c-1.2-1.2-1.9-2.9-1.9-4.6s0.7-3.4,1.9-4.6c1.2-1.2,2.9-1.9,4.6-1.9
			c1.7,0,3.4,0.7,4.6,1.9l11.6,11.6c0.7,0.8,1.1,1.8,1.1,2.8c0,1.1-0.4,2.1-1.2,2.8c-0.7,0.7-1.8,1.2-2.8,1.2
			c-1.1,0-2.1-0.4-2.8-1.1L9.5,14c-0.3-0.3-0.4-0.6-0.4-1c0-0.4,0.2-0.8,0.4-1c0.3-0.3,0.6-0.4,1-0.4c0.4,0,0.8,0.2,1,0.4l10.6,10.6
			c0.2,0.2,0.5,0.3,0.8,0.3c0.3,0,0.6-0.1,0.8-0.3c0.2-0.2,0.3-0.5,0.3-0.8c0-0.3-0.1-0.6-0.3-0.8L12.1,9.4
			c-0.3-0.3-0.7-0.6-1.2-0.8C10.5,8.4,10,8.3,9.5,8.3c-0.5,0-1,0.1-1.4,0.3C7.7,8.7,7.3,9,6.9,9.4C6.2,10,5.9,11,5.9,11.9
			c0,1,0.4,1.9,1.1,2.6l11.6,11.6c1.2,1.2,2.7,1.8,4.4,1.8C24.5,27.9,26.1,27.3,27.3,26.1L27.3,26.1z"/>
	</g>
</g>
</svg>
